flaticon/productivity-and-development/presentation.svg

<svg xmlns="http://www.w3.org/2000/svg" width="32" height="32" viewBox="0 0 24 24">
    <path d="M20.222656 19.546875C18.140625 19.546875 16.445312 21.316406 16.445312 23.488281L16.445312 24 24 24 24 23.488281C24 21.316406 22.304688 19.546875 20.222656 19.546875zM17.507812 22.980469C17.738281 21.613281 18.867188 20.570312 20.222656 20.570312 21.578125 20.570312 22.707031 21.613281 22.9375 22.980469zM12 19.546875C9.917969 19.546875 8.222656 21.316406 8.222656 23.488281L8.222656 24 15.777344 24 15.777344 23.488281C15.777344 21.316406 14.082031 19.546875 12 19.546875zM9.285156 22.980469C9.515625 21.613281 10.644531 20.570312 12 20.570312 13.355469 20.570312 14.484375 21.613281 14.714844 22.980469zM3.777344 19.546875C1.695312 19.546875 0 21.316406 0 23.488281L0 24 7.554688 24 7.554688 23.488281C7.554688 21.316406 5.859375 19.546875 3.777344 19.546875zM1.0625 22.980469C1.292969 21.613281 2.421875 20.570312 3.777344 20.570312 5.132812 20.570312 6.261719 21.613281 6.492188 22.980469zM18.058594 17.203125C18.058594 18.441406 19.027344 19.449219 20.222656 19.449219 21.414062 19.449219 22.386719 18.441406 22.386719 17.203125 22.386719 15.964844 21.414062 14.957031 20.222656 14.957031 19.027344 14.957031 18.058594 15.964844 18.058594 17.203125zM20.222656 15.976562C20.851562 15.976562 21.363281 16.527344 21.363281 17.203125 21.363281 17.878906 20.851562 18.425781 20.222656 18.425781 19.59375 18.425781 19.082031 17.878906 19.082031 17.203125 19.082031 16.527344 19.59375 15.976562 20.222656 15.976562zM9.835938 17.203125C9.835938 18.441406 10.808594 19.449219 12 19.449219 13.191406 19.449219 14.164062 18.441406 14.164062 17.203125 14.164062 15.964844 13.191406 14.957031 12 14.957031 10.808594 14.957031 9.835938 15.964844 9.835938 17.203125zM13.140625 17.203125C13.140625 17.878906 12.628906 18.425781 12 18.425781 11.371094 18.425781 10.855469 17.878906 10.855469 17.203125 10.855469 16.527344 11.371094 15.976562 12 15.976562 12.628906 15.976562 13.140625 16.527344 13.140625 17.203125zM3.777344 19.449219C4.96875 19.449219 5.941406 18.441406 5.941406 17.203125 5.941406 15.964844 4.96875 14.957031 3.777344 14.957031 2.582031 14.957031 1.613281 15.964844 1.613281 17.203125 1.613281 18.441406 2.582031 19.449219 3.777344 19.449219zM3.777344 15.976562C4.40625 15.976562 4.917969 16.527344 4.917969 17.203125 4.917969 17.878906 4.40625 18.425781 3.777344 18.425781 3.148438 18.425781 2.632812 17.878906 2.632812 17.203125 2.632812 16.527344 3.148438 15.976562 3.777344 15.976562zM6.542969 13.980469L7.546875 14.160156 8.167969 10.652344 15.832031 10.652344 16.453125 14.160156 17.457031 13.980469 16.871094 10.652344 19.9375 10.652344 19.9375 0 4.0625 0 4.0625 10.652344 7.128906 10.652344zM5.082031 1.019531L18.917969 1.019531 18.917969 9.632812 5.082031 9.632812zM5.082031 1.019531"/>
</svg>

<svg xmlns="http://www.w3.org/2000/svg" width="32" height="32" viewBox="0 0 24 24">
    <path d="M20.223 19.547c-2.082 0-3.778 1.77-3.778 3.941V24H24v-.512c0-2.172-1.695-3.941-3.777-3.941zm-2.715 3.433c.23-1.367 1.36-2.41 2.715-2.41 1.355 0 2.484 1.043 2.715 2.41zm0 0M12 19.547c-2.082 0-3.777 1.77-3.777 3.941V24h7.554v-.512c0-2.172-1.695-3.941-3.777-3.941zM9.285 22.98c.23-1.367 1.36-2.41 2.715-2.41 1.355 0 2.484 1.043 2.715 2.41zm0 0M3.777 19.547C1.695 19.547 0 21.317 0 23.488V24h7.555v-.512c0-2.172-1.696-3.941-3.778-3.941zM1.062 22.98c.231-1.367 1.36-2.41 2.715-2.41 1.356 0 2.485 1.043 2.715 2.41zm0 0M18.059 17.203c0 1.238.968 2.246 2.164 2.246 1.191 0 2.164-1.008 2.164-2.246s-.973-2.246-2.164-2.246c-1.196 0-2.164 1.008-2.164 2.246zm2.164-1.226c.629 0 1.14.55 1.14 1.226 0 .676-.511 1.223-1.14 1.223-.63 0-1.141-.547-1.141-1.223s.512-1.226 1.14-1.226zm0 0M9.836 17.203c0 1.238.973 2.246 2.164 2.246 1.191 0 2.164-1.008 2.164-2.246s-.973-2.246-2.164-2.246c-1.191 0-2.164 1.008-2.164 2.246zm3.305 0c0 .676-.512 1.223-1.141 1.223s-1.145-.547-1.145-1.223.516-1.226 1.145-1.226 1.14.55 1.14 1.226zm0 0M3.777 19.45c1.192 0 2.164-1.009 2.164-2.247s-.972-2.246-2.164-2.246c-1.195 0-2.164 1.008-2.164 2.246s.969 2.246 2.164 2.246zm0-3.473c.63 0 1.141.55 1.141 1.226 0 .676-.512 1.223-1.14 1.223-.63 0-1.145-.547-1.145-1.223s.515-1.226 1.144-1.226zm0 0M6.543 13.98l1.004.18.621-3.508h7.664l.621 3.508 1.004-.18-.586-3.328h3.067V0H4.063v10.652h3.066zM5.082 1.02h13.836v8.613H5.082zm0 0"/>
</svg>
